X:8862
T:La Casa'l Seor Cura (Xirandilla)
C:Trad.
M:2/4
L:1/8
Q:1/4=100
K:C
|: GG EE|FF GE|GG EE|FD EE :|
|EE/E/ CC/C/|DD/D/ EC|EE/E/ CC/C/|DB, C2 :|
